img/Pinterest.svg

<svg width="244" height="278" viewBox="0 0 244 278" fill="none" xmlns="http://www.w3.org/2000/svg">
<path d="M32.6706 51.1215L35.4142 50.5142L35.4142 47.7042L35.4142 38.4617C35.4142 19.4113 52.2326 3.49999 73.5799 3.49999L171.307 3.5C192.654 3.5 209.472 19.4113 209.472 38.4617L209.472 47.91L209.472 50.6613L212.146 51.311C228.649 55.3222 240.5 69.0842 240.5 85.1068L240.5 192.893C240.5 208.916 228.649 222.678 212.146 226.689L209.472 227.339L209.472 230.09L209.472 239.538C209.472 258.589 192.654 274.5 171.307 274.5L73.5799 274.5C52.2326 274.5 35.4142 258.589 35.4142 239.538L35.4142 230.296L35.4142 227.486L32.6706 226.878C15.7463 223.132 3.50001 209.178 3.50001 192.893L3.50001 85.1068C3.50001 68.8215 15.7463 54.8678 32.6706 51.1215Z" fill="#F1C75F" stroke="#F8F0DD" stroke-width="7"/>
<path d="M179.031 147.751H174.893V135.288H172.329V133.652H174.893V128.464H179.031V133.652H183.303V135.288H179.031V147.751Z" fill="#FDFDFD"/>
<path d="M171.108 143.247C171.108 143.866 171.019 144.415 170.84 144.895C170.661 145.375 170.417 145.794 170.107 146.152C169.798 146.502 169.432 146.799 169.009 147.043C168.586 147.279 168.13 147.471 167.642 147.617C167.161 147.764 166.657 147.869 166.128 147.935C165.599 148 165.074 148.032 164.553 148.032C163.853 148.032 163.235 147.987 162.698 147.898C162.161 147.808 161.648 147.666 161.16 147.471C160.671 147.267 160.183 147.007 159.695 146.689C159.215 146.372 158.678 145.986 158.083 145.53L160.488 143.564C160.708 143.979 160.997 144.358 161.355 144.7C161.721 145.033 162.1 145.322 162.49 145.566C162.881 145.811 163.259 145.998 163.625 146.128C163.992 146.258 164.289 146.323 164.517 146.323C164.704 146.323 164.915 146.319 165.151 146.311C165.387 146.295 165.627 146.27 165.872 146.238C166.116 146.197 166.356 146.14 166.592 146.067C166.828 145.994 167.035 145.896 167.214 145.774C167.402 145.644 167.548 145.485 167.654 145.298C167.768 145.103 167.825 144.871 167.825 144.602C167.825 144.325 167.751 144.085 167.605 143.882C167.467 143.67 167.284 143.487 167.056 143.333C166.828 143.178 166.567 143.048 166.274 142.942C165.981 142.836 165.684 142.743 165.383 142.661C165.09 142.58 164.806 142.511 164.529 142.454C164.252 142.389 164.012 142.327 163.809 142.271C163.434 142.165 163.04 142.059 162.625 141.953C162.209 141.839 161.799 141.713 161.392 141.575C160.985 141.428 160.594 141.257 160.22 141.062C159.854 140.867 159.528 140.635 159.243 140.366C158.966 140.09 158.743 139.768 158.572 139.402C158.409 139.028 158.328 138.592 158.328 138.096C158.328 137.184 158.507 136.423 158.865 135.813C159.231 135.194 159.711 134.702 160.305 134.336C160.899 133.962 161.575 133.697 162.332 133.542C163.088 133.388 163.857 133.311 164.639 133.311C165.176 133.311 165.741 133.368 166.335 133.481C166.93 133.587 167.507 133.75 168.069 133.97C168.63 134.181 169.155 134.442 169.644 134.751C170.132 135.06 170.539 135.414 170.864 135.813L168.459 137.791C168.28 137.302 168.044 136.883 167.751 136.533C167.467 136.183 167.153 135.898 166.812 135.679C166.478 135.451 166.132 135.284 165.774 135.178C165.424 135.072 165.098 135.02 164.797 135.02C164.504 135.02 164.175 135.032 163.809 135.056C163.442 135.081 163.097 135.15 162.771 135.264C162.454 135.378 162.181 135.553 161.953 135.789C161.733 136.016 161.624 136.334 161.624 136.741C161.624 137.034 161.689 137.286 161.819 137.498C161.957 137.701 162.136 137.88 162.356 138.035C162.576 138.181 162.824 138.307 163.101 138.413C163.385 138.511 163.674 138.6 163.967 138.682C164.26 138.755 164.545 138.82 164.822 138.877C165.098 138.934 165.347 138.995 165.566 139.06C165.941 139.166 166.335 139.276 166.75 139.39C167.174 139.495 167.589 139.622 167.996 139.768C168.403 139.906 168.793 140.073 169.167 140.269C169.55 140.456 169.884 140.688 170.168 140.964C170.453 141.241 170.681 141.567 170.852 141.941C171.023 142.307 171.108 142.743 171.108 143.247Z" fill="#FDFDFD"/>
<path d="M146.23 141.062C146.735 141.176 147.24 141.265 147.744 141.331C148.249 141.396 148.757 141.428 149.27 141.428C149.807 141.428 150.304 141.379 150.759 141.282C151.223 141.176 151.622 141.005 151.956 140.769C152.297 140.525 152.566 140.203 152.761 139.805C152.957 139.406 153.054 138.91 153.054 138.315C153.054 137.835 152.989 137.396 152.859 136.997C152.729 136.598 152.533 136.257 152.273 135.972C152.021 135.687 151.707 135.467 151.333 135.312C150.959 135.15 150.523 135.068 150.027 135.068C149.563 135.068 149.144 135.154 148.77 135.325C148.403 135.496 148.078 135.728 147.793 136.021C147.516 136.305 147.276 136.639 147.073 137.021C146.877 137.404 146.715 137.803 146.584 138.218C146.454 138.633 146.361 139.052 146.304 139.475C146.247 139.898 146.218 140.297 146.218 140.671C146.218 140.736 146.218 140.802 146.218 140.867C146.218 140.932 146.222 140.997 146.23 141.062ZM156.399 138.279C156.399 138.857 156.305 139.373 156.118 139.829C155.931 140.277 155.675 140.671 155.349 141.013C155.032 141.355 154.661 141.644 154.238 141.88C153.815 142.116 153.363 142.311 152.883 142.466C152.403 142.612 151.907 142.718 151.394 142.783C150.889 142.848 150.397 142.881 149.917 142.881C149.307 142.881 148.704 142.84 148.11 142.759C147.516 142.669 146.93 142.531 146.353 142.344C146.442 142.881 146.584 143.394 146.78 143.882C146.975 144.362 147.236 144.785 147.561 145.151C147.887 145.509 148.285 145.794 148.757 146.006C149.237 146.217 149.803 146.323 150.454 146.323C150.885 146.323 151.296 146.258 151.687 146.128C152.078 145.998 152.436 145.815 152.761 145.579C153.087 145.343 153.372 145.062 153.616 144.736C153.868 144.411 154.071 144.049 154.226 143.65L156.008 144.309C155.74 144.952 155.369 145.509 154.897 145.981C154.434 146.445 153.905 146.832 153.311 147.141C152.725 147.442 152.098 147.666 151.431 147.812C150.771 147.959 150.116 148.032 149.465 148.032C148.391 148.032 147.398 147.853 146.487 147.495C145.575 147.129 144.79 146.62 144.131 145.969C143.472 145.318 142.955 144.541 142.581 143.638C142.206 142.734 142.019 141.746 142.019 140.671C142.019 139.597 142.206 138.608 142.581 137.705C142.955 136.802 143.472 136.025 144.131 135.374C144.79 134.722 145.575 134.218 146.487 133.86C147.398 133.494 148.391 133.311 149.465 133.311C149.986 133.311 150.519 133.347 151.064 133.42C151.61 133.494 152.139 133.612 152.651 133.774C153.164 133.929 153.648 134.132 154.104 134.385C154.56 134.637 154.954 134.95 155.288 135.325C155.63 135.691 155.898 136.118 156.094 136.606C156.297 137.095 156.399 137.652 156.399 138.279Z" fill="#FDFDFD"/>
<path d="M141.47 134.897L139.15 138.743C139.053 138.417 138.927 138.051 138.772 137.644C138.617 137.237 138.426 136.859 138.198 136.509C137.97 136.151 137.698 135.854 137.38 135.618C137.063 135.374 136.697 135.251 136.282 135.251C135.899 135.251 135.566 135.349 135.281 135.544C135.004 135.74 134.768 135.996 134.573 136.313C134.377 136.623 134.215 136.977 134.084 137.375C133.962 137.766 133.865 138.165 133.792 138.572C133.726 138.971 133.682 139.357 133.657 139.731C133.633 140.098 133.621 140.415 133.621 140.684V147.751H129.482V133.652H131.069L132.742 136.936C132.97 136.407 133.23 135.923 133.523 135.483C133.816 135.036 134.154 134.653 134.536 134.336C134.919 134.01 135.35 133.758 135.83 133.579C136.318 133.4 136.868 133.311 137.478 133.311C137.795 133.311 138.149 133.339 138.54 133.396C138.931 133.445 139.313 133.534 139.688 133.665C140.062 133.787 140.408 133.949 140.725 134.153C141.042 134.356 141.291 134.604 141.47 134.897Z" fill="#FDFDFD"/>
<path d="M116.738 141.062C117.243 141.176 117.747 141.265 118.252 141.331C118.757 141.396 119.265 141.428 119.778 141.428C120.315 141.428 120.811 141.379 121.267 141.282C121.731 141.176 122.13 141.005 122.463 140.769C122.805 140.525 123.074 140.203 123.269 139.805C123.464 139.406 123.562 138.91 123.562 138.315C123.562 137.835 123.497 137.396 123.367 136.997C123.236 136.598 123.041 136.257 122.781 135.972C122.528 135.687 122.215 135.467 121.841 135.312C121.466 135.15 121.031 135.068 120.535 135.068C120.071 135.068 119.652 135.154 119.277 135.325C118.911 135.496 118.586 135.728 118.301 136.021C118.024 136.305 117.784 136.639 117.581 137.021C117.385 137.404 117.222 137.803 117.092 138.218C116.962 138.633 116.868 139.052 116.812 139.475C116.755 139.898 116.726 140.297 116.726 140.671C116.726 140.736 116.726 140.802 116.726 140.867C116.726 140.932 116.73 140.997 116.738 141.062ZM126.907 138.279C126.907 138.857 126.813 139.373 126.626 139.829C126.439 140.277 126.182 140.671 125.857 141.013C125.54 141.355 125.169 141.644 124.746 141.88C124.323 142.116 123.871 142.311 123.391 142.466C122.911 142.612 122.415 142.718 121.902 142.783C121.397 142.848 120.905 142.881 120.425 142.881C119.814 142.881 119.212 142.84 118.618 142.759C118.024 142.669 117.438 142.531 116.86 142.344C116.95 142.881 117.092 143.394 117.288 143.882C117.483 144.362 117.743 144.785 118.069 145.151C118.394 145.509 118.793 145.794 119.265 146.006C119.745 146.217 120.311 146.323 120.962 146.323C121.393 146.323 121.804 146.258 122.195 146.128C122.585 145.998 122.944 145.815 123.269 145.579C123.595 145.343 123.879 145.062 124.124 144.736C124.376 144.411 124.579 144.049 124.734 143.65L126.516 144.309C126.248 144.952 125.877 145.509 125.405 145.981C124.941 146.445 124.412 146.832 123.818 147.141C123.232 147.442 122.606 147.666 121.938 147.812C121.279 147.959 120.624 148.032 119.973 148.032C118.899 148.032 117.906 147.853 116.995 147.495C116.083 147.129 115.298 146.62 114.639 145.969C113.979 145.318 113.463 144.541 113.088 143.638C112.714 142.734 112.527 141.746 112.527 140.671C112.527 139.597 112.714 138.608 113.088 137.705C113.463 136.802 113.979 136.025 114.639 135.374C115.298 134.722 116.083 134.218 116.995 133.86C117.906 133.494 118.899 133.311 119.973 133.311C120.494 133.311 121.027 133.347 121.572 133.42C122.118 133.494 122.646 133.612 123.159 133.774C123.672 133.929 124.156 134.132 124.612 134.385C125.068 134.637 125.462 134.95 125.796 135.325C126.138 135.691 126.406 136.118 126.602 136.606C126.805 137.095 126.907 137.652 126.907 138.279Z" fill="#FDFDFD"/>
<path d="M107.791 147.751H103.652V135.288H101.089V133.652H103.652V128.464H107.791V133.652H112.063V135.288H107.791V147.751Z" fill="#FDFDFD"/>
<path d="M99.9048 139.67C99.9048 140.623 99.7868 141.615 99.5508 142.649C99.3229 143.682 99.0015 144.696 98.5864 145.688C98.1714 146.681 97.675 147.613 97.0972 148.484C96.5194 149.363 95.8846 150.12 95.1929 150.754L93.6426 149.912C93.8623 149.505 94.0698 149.049 94.2651 148.545C94.4604 148.04 94.6354 147.507 94.79 146.946C94.9528 146.376 95.0952 145.79 95.2173 145.188C95.3475 144.586 95.4533 143.992 95.5347 143.406C95.6242 142.812 95.6893 142.238 95.73 141.685C95.7788 141.123 95.8032 140.602 95.8032 140.122C95.8032 139.805 95.791 139.467 95.7666 139.109C95.7422 138.743 95.6893 138.381 95.6079 138.022C95.5347 137.656 95.4329 137.306 95.3027 136.973C95.1725 136.639 94.9976 136.346 94.7778 136.094C94.5662 135.841 94.3058 135.638 93.9966 135.483C93.6955 135.329 93.3374 135.251 92.9224 135.251C92.5155 135.251 92.1533 135.345 91.8359 135.532C91.5186 135.711 91.2378 135.951 90.9937 136.252C90.7495 136.545 90.5379 136.883 90.3589 137.266C90.188 137.648 90.0456 138.043 89.9316 138.45C89.8258 138.848 89.7485 139.243 89.6997 139.634C89.6509 140.024 89.6265 140.374 89.6265 140.684V147.751H85.4883V133.652H87.0752L88.9673 136.936C89.1951 136.391 89.48 135.894 89.8218 135.447C90.1636 134.999 90.5501 134.617 90.9814 134.299C91.4128 133.982 91.8888 133.738 92.4097 133.567C92.9386 133.396 93.5083 133.311 94.1187 133.311C95.0952 133.311 95.9456 133.469 96.6699 133.787C97.3942 134.104 97.9964 134.548 98.4766 135.117C98.9567 135.679 99.3148 136.35 99.5508 137.131C99.7868 137.904 99.9048 138.751 99.9048 139.67Z" fill="#FDFDFD"/>
<path d="M82.2046 130.246C82.2046 130.555 82.1436 130.848 82.0215 131.125C81.9076 131.402 81.7489 131.642 81.5454 131.845C81.342 132.049 81.1019 132.211 80.8252 132.333C80.5485 132.447 80.2555 132.504 79.9463 132.504C79.637 132.504 79.3441 132.447 79.0674 132.333C78.7988 132.211 78.5628 132.049 78.3594 131.845C78.1559 131.642 77.9932 131.402 77.8711 131.125C77.7572 130.848 77.7002 130.555 77.7002 130.246C77.7002 129.937 77.7572 129.648 77.8711 129.379C77.9932 129.103 78.1559 128.863 78.3594 128.659C78.5628 128.456 78.7988 128.297 79.0674 128.183C79.3441 128.061 79.637 128 79.9463 128C80.2555 128 80.5485 128.061 80.8252 128.183C81.1019 128.297 81.342 128.456 81.5454 128.659C81.7489 128.863 81.9076 129.103 82.0215 129.379C82.1436 129.648 82.2046 129.937 82.2046 130.246ZM82.0215 147.751H77.8833V133.664H82.0215V147.751Z" fill="#FDFDFD"/>
<path d="M64.8462 147.751H60V130.173H69.4971C70.319 130.173 71.1043 130.283 71.853 130.502C72.6099 130.722 73.2772 131.056 73.855 131.503C74.4328 131.943 74.8926 132.5 75.2344 133.176C75.5843 133.843 75.7593 134.628 75.7593 135.532C75.7593 136.101 75.6779 136.639 75.5151 137.143C75.3524 137.639 75.1245 138.095 74.8315 138.51C74.5467 138.925 74.209 139.3 73.8184 139.633C73.4277 139.967 73.0005 140.248 72.5366 140.476C72.0728 140.703 71.5804 140.878 71.0596 141C70.5469 141.123 70.026 141.184 69.4971 141.184H64.8462V147.751ZM70.8521 135.532C70.8521 134.401 70.5632 133.514 69.9854 132.871C69.4157 132.22 68.5531 131.894 67.3975 131.894H64.8462V139.523H67.3975C68.016 139.523 68.5409 139.426 68.9722 139.23C69.4116 139.027 69.7697 138.746 70.0464 138.388C70.3231 138.03 70.5265 137.611 70.6567 137.131C70.7869 136.643 70.8521 136.11 70.8521 135.532Z" fill="#FDFDFD"/>
</svg>

<svg width="244" height="278" fill="none" xmlns="http://www.w3.org/2000/svg"><path d="M32.67 51.121l2.744-.607V38.462C35.414 19.412 52.233 3.5 73.58 3.5h97.727c21.347 0 38.165 15.911 38.165 34.962V50.66l2.674.65c16.503 4.011 28.354 17.773 28.354 33.796v107.786c0 16.023-11.851 29.785-28.354 33.796l-2.674.65v12.199c0 19.051-16.818 34.962-38.165 34.962H73.58c-21.347 0-38.166-15.911-38.166-34.962v-12.051l-2.743-.608C15.746 223.132 3.5 209.178 3.5 192.893V85.107c0-16.285 12.246-30.24 29.17-33.986z" fill="#F1C75F" stroke="#F8F0DD" stroke-width="7"/><path d="M179.031 147.751h-4.138v-12.463h-2.564v-1.636h2.564v-5.188h4.138v5.188h4.272v1.636h-4.272v12.463zm-7.923-4.504c0 .619-.089 1.168-.268 1.648-.179.48-.423.899-.733 1.257-.309.35-.675.647-1.098.891a6.794 6.794 0 01-1.367.574 8.965 8.965 0 01-1.514.318c-.529.065-1.054.097-1.575.097-.7 0-1.318-.045-1.855-.134a7.452 7.452 0 01-1.538-.427 9.112 9.112 0 01-1.465-.782 28.62 28.62 0 01-1.612-1.159l2.405-1.966c.22.415.509.794.867 1.136.366.333.745.622 1.135.866a5.82 5.82 0 001.135.562c.367.13.664.195.892.195.187 0 .398-.004.634-.012.236-.016.476-.041.721-.073a5.54 5.54 0 00.72-.171c.236-.073.443-.171.622-.293a1.355 1.355 0 00.611-1.172c0-.277-.074-.517-.22-.72a1.939 1.939 0 00-.549-.549 3.506 3.506 0 00-.782-.391 13.161 13.161 0 00-1.745-.488 19.246 19.246 0 01-.72-.183 48.261 48.261 0 00-1.184-.318c-.416-.114-.826-.24-1.233-.378a9.548 9.548 0 01-1.172-.513 4.49 4.49 0 01-.977-.696 3.348 3.348 0 01-.671-.964c-.163-.374-.244-.81-.244-1.306 0-.912.179-1.673.537-2.283a4.237 4.237 0 011.44-1.477 6.044 6.044 0 012.027-.794 11.528 11.528 0 012.307-.231c.537 0 1.102.057 1.696.17a9.14 9.14 0 011.734.489 8.622 8.622 0 011.575.781c.488.309.895.663 1.22 1.062l-2.405 1.978a4.173 4.173 0 00-.708-1.258 3.993 3.993 0 00-.939-.854 3.702 3.702 0 00-1.038-.501 3.382 3.382 0 00-.977-.158c-.293 0-.622.012-.988.036a3.936 3.936 0 00-1.038.208c-.317.114-.59.289-.818.525-.22.227-.329.545-.329.952 0 .293.065.545.195.757.138.203.317.382.537.537.22.146.468.272.745.378.284.098.573.187.866.269.293.073.578.138.855.195.276.057.525.118.744.183.375.106.769.216 1.184.33.424.105.839.232 1.246.378.407.138.797.305 1.171.501.383.187.717.419 1.001.695.285.277.513.603.684.977.171.366.256.802.256 1.306zm-24.878-2.185c.505.114 1.01.203 1.514.269.505.065 1.013.097 1.526.097.537 0 1.034-.049 1.489-.146a3.339 3.339 0 001.197-.513c.341-.244.61-.566.805-.964.196-.399.293-.895.293-1.49 0-.48-.065-.919-.195-1.318a2.773 2.773 0 00-.586-1.025 2.524 2.524 0 00-.94-.66c-.374-.162-.81-.244-1.306-.244-.464 0-.883.086-1.257.257a3.292 3.292 0 00-.977.696 4.334 4.334 0 00-.72 1 7.725 7.725 0 00-.769 2.454 8.986 8.986 0 00-.086 1.196v.196c0 .065.004.13.012.195zm10.169-2.783c0 .578-.094 1.094-.281 1.55a3.844 3.844 0 01-.769 1.184 4.477 4.477 0 01-1.111.867 7.51 7.51 0 01-1.355.586c-.48.146-.976.252-1.489.317-.505.065-.997.098-1.477.098-.61 0-1.213-.041-1.807-.122a11.07 11.07 0 01-1.757-.415 7.33 7.33 0 00.427 1.538c.195.48.456.903.781 1.269.326.358.724.643 1.196.855.48.211 1.046.317 1.697.317a3.882 3.882 0 002.307-.744c.326-.236.611-.517.855-.843.252-.325.455-.687.61-1.086l1.782.659a5.127 5.127 0 01-1.111 1.672 6.395 6.395 0 01-1.586 1.16 7.7 7.7 0 01-1.88.671c-.66.147-1.315.22-1.966.22-1.074 0-2.067-.179-2.978-.537a7.04 7.04 0 01-2.356-1.526 7 7 0 01-1.55-2.331c-.375-.904-.562-1.892-.562-2.967 0-1.074.187-2.063.562-2.966a7 7 0 011.55-2.331 6.877 6.877 0 012.356-1.514c.911-.366 1.904-.549 2.978-.549.521 0 1.054.036 1.599.109a9.464 9.464 0 011.587.354c.513.155.997.358 1.453.611.456.252.85.565 1.184.94.342.366.61.793.806 1.281.203.489.305 1.046.305 1.673zm-14.929-3.382l-2.32 3.846a15.742 15.742 0 00-.378-1.099 5.95 5.95 0 00-.574-1.135 3.304 3.304 0 00-.818-.891 1.751 1.751 0 00-1.098-.367c-.383 0-.716.098-1.001.293a2.585 2.585 0 00-.708.769c-.196.31-.358.664-.489 1.062-.122.391-.219.79-.292 1.197-.066.399-.11.785-.135 1.159a14.86 14.86 0 00-.036.953v7.067h-4.139v-14.099h1.587l1.673 3.284a9.14 9.14 0 01.781-1.453c.293-.447.631-.83 1.013-1.147a4.293 4.293 0 011.294-.757 4.764 4.764 0 011.648-.268c.317 0 .671.028 1.062.085.391.049.773.138 1.148.269.374.122.72.284 1.037.488.317.203.566.451.745.744zm-24.732 6.165c.505.114 1.009.203 1.514.269.505.065 1.013.097 1.526.097.537 0 1.033-.049 1.489-.146a3.326 3.326 0 001.196-.513c.342-.244.611-.566.806-.964.195-.399.293-.895.293-1.49 0-.48-.065-.919-.195-1.318a2.787 2.787 0 00-.586-1.025 2.532 2.532 0 00-.94-.66c-.375-.162-.81-.244-1.306-.244-.464 0-.883.086-1.258.257a3.3 3.3 0 00-.976.696 4.334 4.334 0 00-.72 1 7.627 7.627 0 00-.769 2.454 8.986 8.986 0 00-.086 1.196v.196c0 .065.004.13.012.195zm10.169-2.783c0 .578-.094 1.094-.281 1.55a3.862 3.862 0 01-.769 1.184 4.477 4.477 0 01-1.111.867 7.51 7.51 0 01-1.355.586c-.48.146-.976.252-1.489.317-.505.065-.997.098-1.477.098-.611 0-1.213-.041-1.807-.122-.594-.09-1.18-.228-1.758-.415.09.537.232 1.05.428 1.538.195.48.455.903.781 1.269.325.358.724.643 1.196.855.48.211 1.046.317 1.697.317a3.882 3.882 0 002.307-.744c.326-.236.61-.517.855-.843.252-.325.455-.687.61-1.086l1.782.659a5.127 5.127 0 01-1.111 1.672 6.419 6.419 0 01-1.587 1.16 7.685 7.685 0 01-1.88.671 9.002 9.002 0 01-1.965.22c-1.074 0-2.067-.179-2.978-.537a7.04 7.04 0 01-2.356-1.526 7.003 7.003 0 01-1.551-2.331c-.374-.904-.561-1.892-.561-2.967 0-1.074.187-2.063.561-2.966a7.003 7.003 0 011.551-2.331 6.877 6.877 0 012.356-1.514c.911-.366 1.904-.549 2.978-.549.521 0 1.054.036 1.599.109a9.486 9.486 0 011.587.354c.513.155.997.358 1.453.611.456.252.85.565 1.184.94.342.366.61.793.806 1.281.203.489.305 1.046.305 1.673zm-19.116 9.472h-4.139v-12.463h-2.563v-1.636h2.563v-5.188h4.139v5.188h4.272v1.636h-4.272v12.463zm-7.886-8.081c0 .953-.118 1.945-.354 2.979a17.792 17.792 0 01-.965 3.039 16.676 16.676 0 01-1.489 2.796 11.994 11.994 0 01-1.904 2.27l-1.55-.842c.22-.407.427-.863.622-1.367.195-.505.37-1.038.525-1.599.163-.57.305-1.156.427-1.758.13-.602.236-1.196.318-1.782.09-.594.154-1.168.195-1.721a18.15 18.15 0 00.073-1.563c0-.317-.012-.655-.036-1.013a7.017 7.017 0 00-.16-1.087 6.233 6.233 0 00-.304-1.049 2.958 2.958 0 00-.525-.879 2.413 2.413 0 00-.781-.611c-.302-.154-.66-.232-1.075-.232a2.1 2.1 0 00-1.086.281 2.942 2.942 0 00-.842.72 4.647 4.647 0 00-.635 1.014 8.515 8.515 0 00-.427 1.184 8.897 8.897 0 00-.232 1.184c-.05.39-.074.74-.074 1.05v7.067h-4.138v-14.099h1.587l1.892 3.284a6.68 6.68 0 01.855-1.489 5.73 5.73 0 011.16-1.148 5.06 5.06 0 011.428-.732 5.525 5.525 0 011.709-.256c.976 0 1.827.158 2.55.476a4.89 4.89 0 011.808 1.33c.48.562.838 1.233 1.074 2.014.236.773.354 1.62.354 2.539zm-17.7-9.424c0 .309-.061.602-.183.879a2.17 2.17 0 01-.477.72 2.335 2.335 0 01-.72.488c-.276.114-.57.171-.879.171-.309 0-.602-.057-.879-.171a2.337 2.337 0 01-1.196-1.208 2.289 2.289 0 01-.17-.879 2.2 2.2 0 01.17-.867 2.36 2.36 0 01.488-.72c.204-.203.44-.362.708-.476.277-.122.57-.183.88-.183.308 0 .602.061.878.183a2.18 2.18 0 011.197 1.196c.122.269.183.558.183.867zm-.183 17.505h-4.139v-14.087h4.139v14.087zm-17.176 0H60v-17.578h9.497c.822 0 1.607.11 2.356.329a5.95 5.95 0 012.002 1.001 4.78 4.78 0 011.38 1.673c.35.667.524 1.452.524 2.356 0 .569-.081 1.107-.244 1.611-.163.496-.39.952-.683 1.367-.285.415-.623.79-1.014 1.123a6.09 6.09 0 01-1.281.843 6.959 6.959 0 01-1.477.524 6.674 6.674 0 01-1.563.184h-4.65v6.567zm6.006-12.219c0-1.131-.289-2.018-.867-2.661-.57-.651-1.432-.977-2.588-.977h-2.55v7.629h2.55c.619 0 1.144-.097 1.575-.293.44-.203.798-.484 1.074-.842a3.55 3.55 0 00.61-1.257 6.19 6.19 0 00.196-1.599z" fill="#FDFDFD"/></svg>
